packages/smooth_app/assets/navigation/contribute.svg

<svg width="48px" height="48px" viewBox="0 0 24 24" xmlns="http://www.w3.org/2000/svg" aria-labelledby="supportIconTitle" stroke="#000000" stroke-width="1.5" stroke-linecap="round" stroke-linejoin="round" fill="none" color="#000000"> <title id="supportIconTitle">Support</title> <path stroke-linecap="round" d="M11 8L9.42229 7.21115C9.14458 7.07229 8.83835 7 8.52786 7H7.82843C7.29799 7 6.78929 7.21071 6.41421 7.58579L5.58579 8.41421C5.21071 8.78929 5 9.29799 5 9.82843L5 14.9296C5 15.5983 5.3342 16.2228 5.8906 16.5937L9.75746 19.1716C10.4944 19.663 11.4668 19.611 12.1472 19.044L17 15"/> <path d="M14.4549 12.9142C13.8515 12.1062 12.741 11.8739 11.8643 12.3721L10.009 13.4266C9.41298 13.7653 8.66412 13.6641 8.17937 13.1794V13.1794C7.54605 12.546 7.59324 11.5056 8.2813 10.9323L12.4437 7.46356C12.8032 7.16403 13.2562 7 13.7241 7H14.5279C14.8384 7 15.1446 7.07229 15.4223 7.21115L17.8944 8.44721C18.572 8.786 19 9.47852 19 10.2361L19 12.9796C19 14.9037 16.5489 15.718 15.3976 14.1764L14.4549 12.9142Z"/> <path d="M1 17V8"/> <path d="M1 17V8"/> <path d="M23 17V8"/> </svg>

<svg width="48" height="48" viewBox="0 0 24 24" xmlns="http://www.w3.org/2000/svg" aria-labelledby="supportIconTitle" stroke="#000" stroke-width="1.5" stroke-linecap="round" stroke-linejoin="round" fill="none" color="#000"><path d="m11 8-1.578-.789A2 2 0 0 0 8.528 7h-.7a2 2 0 0 0-1.414.586l-.828.828A2 2 0 0 0 5 9.828v5.102a2 2 0 0 0 .89 1.664l3.867 2.578a2 2 0 0 0 2.39-.128L17 15"/><path d="M14.455 12.914a2 2 0 0 0-2.59-.542l-1.856 1.055a1.523 1.523 0 0 1-1.83-.248v0a1.523 1.523 0 0 1 .102-2.247l4.163-3.468A2 2 0 0 1 13.724 7h.804a2 2 0 0 1 .894.211l2.472 1.236A2 2 0 0 1 19 10.237v2.743c0 1.924-2.451 2.738-3.602 1.196l-.943-1.262ZM1 17V8M1 17V8M23 17V8"/></svg>
